packages/foundations/assets/icons/functional/images/human/shower_men_16.svg

<svg width="16" height="16" viewBox="0 0 16 16" fill="none" xmlns="http://www.w3.org/2000/svg">
<g clip-path="url(#clip0_185_1183)">
<path fill-rule="evenodd" clip-rule="evenodd" d="M5.13347 5.40118C6.34817 5.40118 7.31617 6.36914 7.31612 7.58384C7.32396 8.79815 6.34775 9.78985 5.13347 9.80114C3.91241 9.79268 2.92462 8.8049 2.91617 7.58384C2.92751 6.36957 3.91918 5.3934 5.13347 5.40118ZM11.1811 8.00503C11.5039 7.93047 11.826 8.13185 11.9006 8.45472C11.9753 8.77744 11.7741 9.09963 11.4513 9.17405C11.1285 9.24847 10.8064 9.04723 10.7317 8.72436C10.6571 8.4015 10.8583 8.07946 11.1811 8.00503ZM13.4142 7.68241C13.7005 7.516 14.0679 7.6133 14.2346 7.89972C14.4013 8.18615 14.3043 8.55332 14.0182 8.71986C13.7318 8.88627 13.3646 8.78897 13.1978 8.50255C13.0311 8.21598 13.1279 7.84882 13.4142 7.68241ZM8.39753 7.89786C8.56394 7.61167 8.93109 7.51472 9.2175 7.68151C9.50405 7.84829 9.60135 8.21555 9.43481 8.50175C9.26827 8.78808 8.90112 8.88503 8.61471 8.71824C8.32829 8.55146 8.23099 8.1842 8.39753 7.89786ZM11.1811 6.15803C11.5039 6.08361 11.8261 6.28499 11.9006 6.60772C11.9753 6.93059 11.7741 7.25263 11.4513 7.32706C11.1285 7.40162 10.8064 7.20024 10.7317 6.87737C10.6571 6.55464 10.8583 6.23259 11.1811 6.15803ZM8.99744 6.09925C9.16385 5.81293 9.53115 5.71598 9.81758 5.88276C10.104 6.04955 10.2013 6.4168 10.0349 6.70312C9.86835 6.98944 9.50118 7.08625 9.21476 6.91947C8.92833 6.75283 8.83103 6.38544 8.99744 6.09925ZM12.8142 5.8825C13.1005 5.71596 13.4677 5.81326 13.6345 6.09969C13.8013 6.38611 13.7044 6.75328 13.4182 6.91983C13.1318 7.08624 12.7646 6.98908 12.5978 6.70251C12.431 6.41609 12.528 6.04891 12.8142 5.8825ZM11.3162 1.60114C11.7264 1.60114 12.1161 1.94402 12.1161 2.40114V3.46034L12.4471 3.501L13.2322 3.60959C13.6693 3.67366 13.9718 4.07999 13.9077 4.51714C13.8436 4.9543 13.4373 5.25675 13.0002 5.19268L11.9875 5.05672C11.7611 5.01966 11.5365 5.00114 11.3135 5.00114C11.0906 5.00114 10.8677 5.01966 10.6448 5.05672L9.63218 5.19268C9.19502 5.25675 8.7887 4.9543 8.72463 4.51714C8.66056 4.07999 8.963 3.67366 9.40016 3.60959L10.1852 3.501L10.5161 3.46194L10.5162 2.40114C10.5162 1.95931 10.8743 1.60114 11.3162 1.60114ZM7.33667 11.201C8.31617 11.201 8.71227 12.149 8.45882 12.8266C8.32903 13.1736 8.19753 13.5204 8.0643 13.8671C7.90764 14.2803 7.4457 14.4883 7.03252 14.3316C6.64885 14.1861 6.41365 13.7324 6.56804 13.2998C6.62921 13.1335 6.69192 12.9672 6.75617 12.8011H3.47057L3.66532 13.3202C3.8094 13.7044 3.64556 14.1821 3.19713 14.3503C2.81294 14.4944 2.33059 14.3125 2.16702 13.8821C2.03285 13.5291 1.9004 13.1759 1.76966 12.8226C1.42055 11.8917 2.20483 11.2019 2.89333 11.201C4.37425 11.1993 5.85536 11.1993 7.33667 11.201Z" fill="#1A1C1F"/>
</g>
<defs>
<clipPath id="clip0_185_1183">
<rect width="16" height="16" fill="white"/>
</clipPath>
</defs>
</svg>

<svg xmlns="http://www.w3.org/2000/svg" width="16" height="16" fill="none"><g clip-path="url(#a)"><path fill="#1A1C1F" fill-rule="evenodd" d="M5.133 5.401a2.17 2.17 0 0 1 2.183 2.183A2.203 2.203 0 0 1 5.133 9.8a2.233 2.233 0 0 1-2.217-2.217A2.203 2.203 0 0 1 5.133 5.4m6.048 2.604a.6.6 0 1 1 .27 1.17.6.6 0 0 1-.27-1.17m2.233-.323a.6.6 0 1 1 .603 1.039.6.6 0 0 1-.603-1.039m-5.016.216a.6.6 0 1 1 1.036.603.6.6 0 0 1-1.036-.603m2.783-1.74a.6.6 0 1 1 .27 1.17.6.6 0 0 1-.27-1.17m-2.184-.059a.6.6 0 1 1 1.037.603.6.6 0 0 1-1.037-.603m3.817-.217a.6.6 0 1 1 .603 1.038.6.6 0 0 1-.603-1.038m-1.498-4.28c.41 0 .8.342.8.8V3.46l.331.041.785.109A.8.8 0 0 1 13 5.193l-1.012-.136a4.2 4.2 0 0 0-1.343 0l-1.013.136A.8.8 0 0 1 9.4 3.61l.785-.109.331-.04v-1.06a.8.8 0 0 1 .8-.8M7.336 11.2c.98 0 1.376.948 1.123 1.626q-.195.52-.395 1.04a.8.8 0 0 1-1.031.465.815.815 0 0 1-.465-1.032q.092-.25.188-.499H3.471l.194.52a.796.796 0 0 1-.468 1.03.81.81 0 0 1-1.03-.469q-.201-.53-.397-1.06c-.35-.93.435-1.62 1.123-1.621q2.221-.003 4.444 0" clip-rule="evenodd"/></g><defs><clipPath id="a"><path fill="#fff" d="M0 0h16v16H0z"/></clipPath></defs></svg>
